korla/apps/scalable/input-tablet.svg

<!DOCTYPE svg  PUBLIC '-//W3C//DTD SVG 1.1//EN'  'http://www.w3.org/Graphics/SVG/1.1/DTD/svg11.dtd'>
<svg style="clip-rule:evenodd;fill-rule:evenodd;stroke-linejoin:round;stroke-miterlimit:1.41421" version="1.1" viewBox="0 0 48 48" xmlns="http://www.w3.org/2000/svg">
 <g transform="matrix(1.2,0,0,1.2,3.17686,-1208.21)">
  <path d="m0.336 1011.11h34.062c0.722 0 1.302 0.58 1.302 1.3v28.4c0 0.72-0.58 1.3-1.302 1.3h-34.062c-0.722 0-1.302-0.58-1.302-1.3v-28.4c0-0.72 0.58-1.3 1.302-1.3z" style="fill-rule:nonzero;fill:url(#_Linear1)"/>
  <g transform="matrix(2.24909 0 0 9.13412 .490556 885.099)">
   <rect x="4.575" y="14.034" width="10.114" height="2.825" style="fill:rgb(71,96,106)"/>
  </g>
  <path d="m29.466 1016c-0.058 0-0.115 0.01-0.17 0.03-0.11 0.04-0.201 0.12-0.252 0.22l-0.611 1.27 3.058 1.48 0.612-1.27c0.106-0.22 0.014-0.48-0.205-0.59l-2.266-1.09c-0.052-0.03-0.109-0.04-0.166-0.05zm-1.226 1.91l-0.212 0.44 3.059 1.48 0.212-0.44-3.059-1.48zm-0.404 0.84l-0.214 0.44 3.059 1.48 0.214-0.44-3.059-1.48zm-0.406 0.84l-6.455 14.17c-0.03 0.06-0.046 0.13-0.045 0.2l0.031 2.83c2e-3 0.16 0.098 0.31 0.249 0.39 0.106 0.05 0.228 0.05 0.337 0.02 0.044-0.02 0.086-0.04 0.124-0.07l2.234-1.73c0.054-0.04 0.099-0.09 0.129-0.16l6.456-14.17-3.06-1.48z" style="fill-opacity:.847059;fill-rule:nonzero;fill:white"/>
  <g transform="matrix(.833334 0 0 .833334 -3.39655 1006.84)">
   <path d="m9.632 18.943c2.791 0 5.057 2.266 5.057 5.057s-2.266 5.057-5.057 5.057-5.057-2.266-5.057-5.057 2.266-5.057 5.057-5.057zm0 2.492c1.416 0 2.565 1.149 2.565 2.565s-1.149 2.565-2.565 2.565-2.565-1.149-2.565-2.565 1.149-2.565 2.565-2.565z" style="fill:rgb(71,96,106)"/>
  </g>
 </g>
 <defs>
  <linearGradient id="_Linear1" x2="1" gradientTransform="matrix(1.62214e-15,-26.4916,26.4916,1.62214e-15,17.3022,1041.61)" gradientUnits="userSpaceOnUse">
   <stop style="stop-color:rgb(46,62,70)" offset="0"/>
   <stop style="stop-color:rgb(71,96,106)" offset="1"/>
  </linearGradient>
 </defs>
</svg>

<?xml version="1.0" encoding="UTF-8" standalone="no"?>
<!DOCTYPE svg PUBLIC "-//W3C//DTD SVG 1.1//EN" "http://www.w3.org/Graphics/SVG/1.1/DTD/svg11.dtd">
<svg width="100%" height="100%" viewBox="0 0 48 48" version="1.1" xmlns="http://www.w3.org/2000/svg" xmlns:xlink="http://www.w3.org/1999/xlink" xml:space="preserve" xmlns:serif="http://www.serif.com/" style="fill-rule:evenodd;clip-rule:evenodd;stroke-linejoin:round;stroke-miterlimit:1.41421;">
    <g transform="matrix(1.2,0,0,1.2,3.17686,-1208.21)">
        <path d="M0.336,1011.11L34.398,1011.11C35.12,1011.11 35.7,1011.69 35.7,1012.41L35.7,1040.81C35.7,1041.53 35.12,1042.11 34.398,1042.11L0.336,1042.11C-0.386,1042.11 -0.966,1041.53 -0.966,1040.81L-0.966,1012.41C-0.966,1011.69 -0.386,1011.11 0.336,1011.11Z" style="fill:url(#_Linear1);fill-rule:nonzero;"/>
        <g transform="matrix(2.24909,0,0,9.13412,0.490556,885.099)">
            <rect x="4.575" y="14.034" width="10.114" height="2.825" style="fill:rgb(71,96,106);"/>
        </g>
        <path d="M29.466,1016C29.408,1016 29.351,1016.01 29.296,1016.03C29.186,1016.07 29.095,1016.15 29.044,1016.25L28.433,1017.52L31.491,1019L32.103,1017.73C32.209,1017.51 32.117,1017.25 31.898,1017.14L29.632,1016.05C29.58,1016.02 29.523,1016.01 29.466,1016L29.466,1016ZM28.24,1017.91L28.028,1018.35L31.087,1019.83L31.299,1019.39L28.24,1017.91ZM27.836,1018.75L27.622,1019.19L30.681,1020.67L30.895,1020.23L27.836,1018.75ZM27.43,1019.59L20.975,1033.76C20.945,1033.82 20.929,1033.89 20.93,1033.96L20.961,1036.79C20.963,1036.95 21.059,1037.1 21.21,1037.18C21.316,1037.23 21.438,1037.23 21.547,1037.2C21.591,1037.18 21.633,1037.16 21.671,1037.13L23.905,1035.4C23.959,1035.36 24.004,1035.31 24.034,1035.24L30.49,1021.07L27.43,1019.59Z" style="fill:white;fill-opacity:0.847059;fill-rule:nonzero;"/>
        <g transform="matrix(0.833334,0,0,0.833334,-3.39655,1006.84)">
            <path d="M9.632,18.943C12.423,18.943 14.689,21.209 14.689,24C14.689,26.791 12.423,29.057 9.632,29.057C6.841,29.057 4.575,26.791 4.575,24C4.575,21.209 6.841,18.943 9.632,18.943ZM9.632,21.435C11.048,21.435 12.197,22.584 12.197,24C12.197,25.416 11.048,26.565 9.632,26.565C8.216,26.565 7.067,25.416 7.067,24C7.067,22.584 8.216,21.435 9.632,21.435Z" style="fill:rgb(71,96,106);"/>
        </g>
    </g>
    <defs>
        <linearGradient id="_Linear1" x1="0" y1="0" x2="1" y2="0" gradientUnits="userSpaceOnUse" gradientTransform="matrix(1.62214e-15,-26.4916,26.4916,1.62214e-15,17.3022,1041.61)"><stop offset="0" style="stop-color:rgb(46,62,70);stop-opacity:1"/><stop offset="1" style="stop-color:rgb(71,96,106);stop-opacity:1"/></linearGradient>
    </defs>
</svg>
